;FLAVOR:Marlin
;TIME:1715
;Filament used: 1.76454m
;Layer height: 0.2
;Generated with Cura_SteamEngine 3.6.0
M140 S60
M105
M190 S60
M104 S200
M105
M109 S200
M82 ;absolute extrusion mode
G28 ; home all axes
G29
G1 X0 Y20 Z1 F3000 ; get ready to prime
G92 E0 ; reset extrusion distance
G1 X200 E20 F600 ; prime nozzle
G92 E0
G1 E-2.5000 F1800
G1 Z0.180 F1002
G92 E0
G1 F1500 E-6.5
;LAYER_COUNT:30
;LAYER:0
M107
G0 F3600 X76.331 Y86.96 Z0.3
;TYPE:SKIRT
G1 F1500 E0
G1 F1800 X76.967 Y86.493 E0.03937
G1 X77.647 Y86.092 E0.07875
G1 X78.365 Y85.762 E0.11817
G1 X79.112 Y85.507 E0.15755
G1 X79.881 Y85.328 E0.19694
G1 X80.665 Y85.228 E0.23638
G1 X81.26 Y85.205 E0.26608
G1 X93.5 Y85.205 E0.87674
G1 X94.289 Y85.245 E0.91615
G1 X95.069 Y85.364 E0.95552
G1 X95.834 Y85.562 E0.99494
G1 X96.239 Y85.712 E1.01649
G1 X96.286 Y85.692 E1.01904
G1 X97.039 Y85.455 E1.05842
G1 X97.813 Y85.296 E1.09784
G1 X98.598 Y85.215 E1.13721
G1 X99 Y85.205 E1.15727
G1 X138.74 Y85.205 E3.13991
G1 X139.529 Y85.245 E3.17933
G1 X140.309 Y85.364 E3.21869
G1 X141.074 Y85.562 E3.25811
G1 X141.814 Y85.836 E3.29748
G1 X142.523 Y86.184 E3.33689
G1 X143.194 Y86.602 E3.37633
G1 X143.818 Y87.085 E3.41569
G1 X144.255 Y87.49 E3.44542
G1 X145.255 Y88.49 E3.51597
G1 X145.785 Y89.076 E3.55539
G1 X146.252 Y89.712 E3.59476
G1 X146.653 Y90.392 E3.63414
G1 X146.983 Y91.11 E3.67357
G1 X147.238 Y91.857 E3.71295
G1 X147.417 Y92.626 E3.75234
G1 X147.517 Y93.41 E3.79177
G1 X147.54 Y94.005 E3.82148
G1 X147.54 Y118.78 E5.05751
G1 X147.916 Y119.217 E5.08627
G1 X148.367 Y119.865 E5.12566
G1 X148.751 Y120.556 E5.1651
G1 X149.063 Y121.281 E5.20447
G1 X149.3 Y122.034 E5.24386
G1 X149.459 Y122.808 E5.28328
G1 X149.54 Y123.593 E5.32265
G1 X149.55 Y123.995 E5.34271
G1 X149.55 Y126.995 E5.49238
G1 X149.51 Y127.784 E5.5318
G1 X149.391 Y128.564 E5.57116
G1 X149.193 Y129.329 E5.61058
G1 X148.919 Y130.069 E5.64995
G1 X148.571 Y130.778 E5.68936
G1 X148.153 Y131.449 E5.7288
G1 X147.67 Y132.073 E5.76816
G1 X147.127 Y132.646 E5.80755
G1 X146.528 Y133.161 E5.84696
G1 X145.88 Y133.612 E5.88635
G1 X145.189 Y133.996 E5.92579
G1 X144.464 Y134.308 E5.96517
G1 X143.711 Y134.545 E6.00455
G1 X142.937 Y134.704 E6.04397
G1 X142.152 Y134.785 E6.08334
G1 X141.75 Y134.795 E6.1034
G1 X78.25 Y134.795 E9.27143
G1 X77.461 Y134.755 E9.31085
G1 X76.681 Y134.636 E9.35021
G1 X75.916 Y134.438 E9.38963
G1 X75.176 Y134.164 E9.429
G1 X74.467 Y133.816 E9.46841
G1 X73.796 Y133.398 E9.50785
G1 X73.172 Y132.915 E9.54721
G1 X72.599 Y132.372 E9.5866
G1 X72.084 Y131.773 E9.62601
G1 X71.633 Y131.125 E9.6654
G1 X71.249 Y130.434 E9.70484
G1 X70.937 Y129.709 E9.74422
G1 X70.7 Y128.956 E9.7836
G1 X70.541 Y128.182 E9.82302
G1 X70.46 Y127.397 E9.86239
G1 X70.45 Y126.995 E9.88245
G1 X70.45 Y123.995 E10.03213
G1 X70.49 Y123.206 E10.07154
G1 X70.609 Y122.426 E10.1109
G1 X70.807 Y121.661 E10.15033
G1 X71.081 Y120.921 E10.1897
G1 X71.429 Y120.212 E10.2291
G1 X71.847 Y119.541 E10.26854
G1 X72.33 Y118.917 E10.30791
G1 X72.46 Y118.78 E10.31733
G1 X72.46 Y94.005 E11.55336
G1 X72.5 Y93.216 E11.59277
G1 X72.619 Y92.436 E11.63214
G1 X72.817 Y91.671 E11.67156
G1 X73.091 Y90.931 E11.71093
G1 X73.439 Y90.222 E11.75033
G1 X73.857 Y89.551 E11.78977
G1 X74.34 Y88.927 E11.82914
G1 X74.745 Y88.49 E11.85887
G1 X75.745 Y87.49 E11.92942
G1 X76.331 Y86.96 E11.96884
G0 F3600 X76.599 Y87.258
G1 F1800 X77.221 Y86.805 E12.00723
G1 X77.886 Y86.419 E12.04559
G1 X78.588 Y86.104 E12.08398
G1 X79.319 Y85.864 E12.12236
G1 X80.07 Y85.701 E12.1607
G1 X80.835 Y85.617 E12.1991
G1 X81.26 Y85.605 E12.22031
G1 X93.5 Y85.605 E12.83097
G1 X94.268 Y85.645 E12.86934
G1 X95.028 Y85.764 E12.90771
G1 X95.771 Y85.962 E12.94608
G1 X96.251 Y86.145 E12.9717
G1 X96.651 Y85.988 E12.99314
G1 X97.393 Y85.782 E13.03156
G1 X98.151 Y85.654 E13.06991
G1 X99 Y85.605 E13.11234
G1 X138.74 Y85.605 E15.09498
G1 X139.508 Y85.645 E15.13335
G1 X140.268 Y85.764 E15.17172
G1 X141.011 Y85.962 E15.21009
G1 X141.73 Y86.236 E15.24847
G1 X142.416 Y86.583 E15.28683
G1 X143.063 Y86.999 E15.3252
G1 X143.663 Y87.48 E15.36357
G1 X143.973 Y87.772 E15.38481
G1 X144.973 Y88.772 E15.45537
G1 X145.487 Y89.344 E15.49374
G1 X145.94 Y89.966 E15.53213
G1 X146.326 Y90.631 E15.57049
G1 X146.641 Y91.333 E15.60887
G1 X146.881 Y92.064 E15.64726
G1 X147.044 Y92.815 E15.6856
G1 X147.128 Y93.58 E15.72399
G1 X147.14 Y94.005 E15.74521
G1 X147.14 Y118.932 E16.98882
G1 X147.22 Y119.011 E16.99443
G1 X147.708 Y119.606 E17.03282
G1 X148.131 Y120.248 E17.07118
G1 X148.486 Y120.931 E17.10958
G1 X148.767 Y121.646 E17.14791
G1 X148.973 Y122.388 E17.18633
G1 X149.101 Y123.146 E17.22468
G1 X149.15 Y123.995 E17.26711
G1 X149.15 Y126.995 E17.41678
G1 X149.11 Y127.763 E17.45514
G1 X148.991 Y128.523 E17.49352
G1 X148.793 Y129.266 E17.53188
G1 X148.519 Y129.985 E17.57027
G1 X148.172 Y130.671 E17.60863
G1 X147.756 Y131.318 E17.647
G1 X147.275 Y131.918 E17.68537
G1 X146.734 Y132.465 E17.72375
G1 X146.139 Y132.953 E17.76214
G1 X145.497 Y133.376 E17.8005
G1 X144.814 Y133.731 E17.8389
G1 X144.099 Y134.012 E17.87723
G1 X143.357 Y134.218 E17.91565
G1 X142.599 Y134.346 E17.954
G1 X141.75 Y134.395 E17.99643
G1 X78.25 Y134.395 E21.16445
G1 X77.482 Y134.355 E21.20282
G1 X76.722 Y134.236 E21.2412
G1 X75.979 Y134.038 E21.27956
G1 X75.26 Y133.764 E21.31795
G1 X74.574 Y133.417 E21.3563
G1 X73.927 Y133.001 E21.39468
G1 X73.327 Y132.52 E21.43305
G1 X72.78 Y131.979 E21.47143
G1 X72.292 Y131.384 E21.50982
G1 X71.869 Y130.742 E21.54818
G1 X71.514 Y130.059 E21.58658
G1 X71.233 Y129.344 E21.62491
G1 X71.027 Y128.602 E21.66333
G1 X70.899 Y127.844 E21.70168
G1 X70.85 Y126.995 E21.74411
G1 X70.85 Y123.995 E21.89378
G1 X70.89 Y123.227 E21.93214
G1 X71.009 Y122.467 E21.97052
G1 X71.207 Y121.724 E22.00888
G1 X71.481 Y121.005 E22.04727
G1 X71.828 Y120.319 E22.08563
G1 X72.244 Y119.672 E22.124
G1 X72.725 Y119.072 E22.16237
G1 X72.86 Y118.936 E22.17193
G1 X72.86 Y94.005 E23.41574
G1 X72.9 Y93.237 E23.45411
G1 X73.019 Y92.477 E23.49249
G1 X73.217 Y91.734 E23.53085
G1 X73.491 Y91.015 E23.56924
G1 X73.838 Y90.329 E23.60759
G1 X74.254 Y89.682 E23.64596
G1 X74.735 Y89.082 E23.68433
G1 X75.027 Y88.772 E23.70558
G1 X76.027 Y87.772 E23.77613
G1 X76.599 Y87.258 E23.8145
G0 F3600 X76.867 Y87.555
G1 F1800 X77.473 Y87.118 E23.85177
G1 X78.123 Y86.747 E23.88911
G1 X78.809 Y86.448 E23.92645
G1 X79.523 Y86.224 E23.96378
G1 X80.256 Y86.077 E24.00108
G1 X81.26 Y86.005 E24.0513
G1 X93.5 Y86.005 E24.66195
G1 X94.247 Y86.045 E24.69927
G1 X94.985 Y86.164 E24.73657
G1 X95.707 Y86.362 E24.77392
G1 X96.245 Y86.573 E24.80275
G1 X96.308 Y86.543 E24.80623
G1 X97.013 Y86.293 E24.84355
G1 X97.741 Y86.119 E24.88089
G1 X98.483 Y86.024 E24.91821
G1 X99 Y86.005 E24.94402
G1 X138.74 Y86.005 E26.92666
G1 X139.487 Y86.045 E26.96398
G1 X140.225 Y86.164 E27.00128
G1 X140.947 Y86.362 E27.03863
G1 X141.643 Y86.635 E27.07593
G1 X142.306 Y86.982 E27.11326
G1 X142.929 Y87.397 E27.15061
G1 X143.69 Y88.055 E27.2008
G1 X144.69 Y89.055 E27.27135
G1 X145.19 Y89.612 E27.3087
G1 X145.627 Y90.218 E27.34597
G1 X145.998 Y90.868 E27.38331
G1 X146.297 Y91.554 E27.42064
G1 X146.521 Y92.268 E27.45798
G1 X146.668 Y93.001 E27.49527
G1 X146.74 Y94.005 E27.54549
G1 X146.74 Y119.1 E28.79749
G1 X147.034 Y119.403 E28.81855
G1 X147.493 Y119.993 E28.85584
G1 X147.888 Y120.629 E28.8932
G1 X148.212 Y121.303 E28.93051
G1 X148.462 Y122.008 E28.96782
G1 X148.636 Y122.736 E29.00517
G1 X148.731 Y123.478 E29.04249
G1 X148.75 Y123.995 E29.0683
G1 X148.75 Y126.995 E29.21797
G1 X148.71 Y127.742 E29.25529
G1 X148.591 Y128.48 E29.29259
G1 X148.393 Y129.202 E29.32994
G1 X148.12 Y129.898 E29.36724
G1 X147.773 Y130.561 E29.40457
G1 X147.358 Y131.184 E29.44192
G1 X146.879 Y131.758 E29.47921
G1 X146.342 Y132.279 E29.51654
G1 X145.752 Y132.738 E29.55384
G1 X145.116 Y133.133 E29.59119
G1 X144.442 Y133.457 E29.6285
G1 X143.737 Y133.707 E29.66582
G1 X143.009 Y133.881 E29.70316
G1 X142.267 Y133.976 E29.74048
G1 X141.75 Y133.995 E29.76629
G1 X78.25 Y133.995 E32.93432
G1 X77.503 Y133.955 E32.97164
G1 X76.765 Y133.836 E33.00893
G1 X76.043 Y133.638 E33.04628
G1 X75.347 Y133.365 E33.08358
G1 X74.684 Y133.018 E33.12092
G1 X74.061 Y132.603 E33.15826
G1 X73.487 Y132.124 E33.19556
G1 X72.966 Y131.587 E33.23289
G1 X72.507 Y130.997 E33.27018
G1 X72.112 Y130.361 E33.30753
G1 X71.788 Y129.687 E33.34484
G1 X71.538 Y128.982 E33.38216
G1 X71.364 Y128.254 E33.41951
G1 X71.269 Y127.512 E33.45683
G1 X71.25 Y126.995 E33.48264
G1 X71.25 Y123.995 E33.63231
G1 X71.29 Y123.248 E33.66963
G1 X71.409 Y122.51 E33.70692
G1 X71.607 Y121.788 E33.74427
G1 X71.88 Y121.092 E33.78157
G1 X72.227 Y120.429 E33.81891
G1 X72.642 Y119.806 E33.85625
G1 X73.121 Y119.232 E33.89355
G1 X73.26 Y119.097 E33.90322
G1 X73.26 Y94.005 E35.15506
G1 X73.3 Y93.258 E35.19239
G1 X73.419 Y92.52 E35.22968
G1 X73.617 Y91.798 E35.26703
G1 X73.89 Y91.102 E35.30433
G1 X74.237 Y90.439 E35.34166
G1 X74.652 Y89.816 E35.37901
G1 X75.31 Y89.055 E35.4292
G1 X76.31 Y88.055 E35.49976
G1 X76.867 Y87.555 E35.5371
G0 F3600 X77.134 Y87.854
G1 F1800 X77.725 Y87.431 E35.57336
G1 X78.359 Y87.077 E35.60958
G1 X79.028 Y86.794 E35.64582
G1 X79.724 Y86.586 E35.68207
G1 X80.439 Y86.456 E35.71832
G1 X81.26 Y86.405 E35.75936
G1 X93.5 Y86.405 E36.37002
G1 X94.225 Y86.445 E36.40624
G1 X94.942 Y86.564 E36.4425
G1 X95.641 Y86.762 E36.47875
G1 X96.258 Y87.012 E36.51196
G1 X96.678 Y86.827 E36.53486
G1 X97.371 Y86.609 E36.5711
G1 X98.083 Y86.469 E36.6073
G1 X99 Y86.405 E36.65317
G1 X138.74 Y86.405 E38.6358
G1 X139.465 Y86.445 E38.67203
G1 X140.182 Y86.564 E38.70829
G1 X140.881 Y86.762 E38.74453
G1 X141.554 Y87.035 E38.78077
G1 X142.193 Y87.38 E38.817
G1 X142.79 Y87.794 E38.85324
G1 X143.407 Y88.338 E38.89428
G1 X144.407 Y89.338 E38.96484
G1 X144.891 Y89.879 E39.00105
G1 X145.314 Y90.47 E39.03731
G1 X145.668 Y91.104 E39.07354
G1 X145.951 Y91.773 E39.10978
G1 X146.159 Y92.469 E39.14602
G1 X146.289 Y93.184 E39.18227
G1 X146.34 Y94.005 E39.22331
G1 X146.34 Y119.253 E40.48294
G1 X146.348 Y119.26 E40.48347
G1 X146.841 Y119.794 E40.51973
G1 X147.271 Y120.379 E40.55595
G1 X147.635 Y121.008 E40.59221
G1 X147.928 Y121.673 E40.62846
G1 X148.146 Y122.366 E40.66471
G1 X148.286 Y123.078 E40.70091
G1 X148.35 Y123.995 E40.74677
G1 X148.35 Y126.995 E40.89644
G1 X148.31 Y127.72 E40.93267
G1 X148.191 Y128.437 E40.96893
G1 X147.993 Y129.136 E41.00517
G1 X147.72 Y129.809 E41.04141
G1 X147.375 Y130.448 E41.07764
G1 X146.961 Y131.045 E41.11388
G1 X146.485 Y131.593 E41.15009
G1 X145.951 Y132.086 E41.18635
G1 X145.366 Y132.516 E41.22258
G1 X144.737 Y132.88 E41.25883
G1 X144.072 Y133.173 E41.29509
G1 X143.379 Y133.391 E41.33133
G1 X142.667 Y133.531 E41.36753
G1 X141.75 Y133.595 E41.41339
G1 X78.25 Y133.595 E44.58142
G1 X77.525 Y133.555 E44.61765
G1 X76.808 Y133.436 E44.65391
G1 X76.109 Y133.238 E44.69015
G1 X75.436 Y132.965 E44.72639
G1 X74.797 Y132.62 E44.76262
G1 X74.2 Y132.206 E44.79886
G1 X73.652 Y131.73 E44.83507
G1 X73.159 Y131.196 E44.87133
G1 X72.729 Y130.611 E44.90756
G1 X72.365 Y129.982 E44.94381
G1 X72.072 Y129.317 E44.98007
G1 X71.854 Y128.624 E45.01631
G1 X71.714 Y127.912 E45.05251
G1 X71.65 Y126.995 E45.09837
G1 X71.65 Y123.995 E45.24804
G1 X71.69 Y123.27 E45.28427
G1 X71.809 Y122.553 E45.32053
G1 X72.007 Y121.854 E45.35678
G1 X72.28 Y121.181 E45.39301
G1 X72.625 Y120.542 E45.42924
G1 X73.039 Y119.945 E45.46548
G1 X73.515 Y119.397 E45.5017
G1 X73.66 Y119.263 E45.51155
G1 X73.66 Y94.005 E46.77167
G1 X73.7 Y93.28 E46.8079
G1 X73.819 Y92.563 E46.84416
G1 X74.017 Y91.864 E46.88041
G1 X74.29 Y91.191 E46.91664
G1 X74.635 Y90.552 E46.95287
G1 X75.049 Y89.955 E46.98911
G1 X75.593 Y89.338 E47.03015
G1 X76.593 Y88.338 E47.10071
G1 X77.134 Y87.854 E47.13692
G0 F3600 X77.401 Y88.152
G1 F1800 X77.976 Y87.746 E47.17204
G1 X78.594 Y87.408 E47.20718
G1 X79.245 Y87.141 E47.24229
G1 X79.923 Y86.951 E47.27742
G1 X80.618 Y86.838 E47.31254
G1 X81.26 Y86.805 E47.34462
G1 X93.5 Y86.805 E47.95527
G1 X94.203 Y86.845 E47.9904
G1 X94.897 Y86.964 E48.02553
G1 X95.572 Y87.162 E48.06063
G1 X96.221 Y87.434 E48.09573
G1 X96.255 Y87.453 E48.09768
G1 X96.389 Y87.382 E48.10524
G1 X97.043 Y87.122 E48.14035
G1 X97.723 Y86.938 E48.1755
G1 X98.419 Y86.832 E48.21062
G1 X99 Y86.805 E48.23964
G1 X138.74 Y86.805 E50.22228
G1 X139.443 Y86.845 E50.25741
G1 X140.137 Y86.964 E50.29254
G1 X140.812 Y87.162 E50.32763
G1 X141.461 Y87.434 E50.36274
G1 X142.075 Y87.779 E50.39788
G1 X142.646 Y88.19 E50.43297
G1 X143.124 Y88.621 E50.46509
G1 X144.124 Y89.621 E50.53564
G1 X144.593 Y90.146 E50.57076
G1 X144.999 Y90.721 E50.60588
G1 X145.337 Y91.339 E50.64102
G1 X145.604 Y91.99 E50.67613
G1 X145.794 Y92.668 E50.71125
G1 X145.907 Y93.363 E50.74638
G1 X145.94 Y94.005 E50.77846
G1 X145.94 Y119.438 E52.04731
G1 X146.177 Y119.654 E52.06331
G1 X146.641 Y120.184 E52.09845
G1 X147.041 Y120.763 E52.13356
G1 X147.373 Y121.384 E52.16869
G1 X147.633 Y122.038 E52.20381
G1 X147.817 Y122.718 E52.23895
G1 X147.923 Y123.414 E52.27408
G1 X147.95 Y123.995 E52.30309
G1 X147.95 Y126.995 E52.45276
G1 X147.91 Y127.698 E52.48789
G1 X147.791 Y128.392 E52.52302
G1 X147.593 Y129.067 E52.55812
G1 X147.321 Y129.716 E52.59323
G1 X146.976 Y130.33 E52.62836
G1 X146.565 Y130.901 E52.66346
G1 X146.091 Y131.422 E52.6986
G1 X145.561 Y131.886 E52.73375
G1 X144.982 Y132.286 E52.76885
G1 X144.361 Y132.618 E52.80399
G1 X143.707 Y132.878 E52.8391
G1 X143.027 Y133.062 E52.87424
G1 X142.331 Y133.168 E52.90937
G1 X141.75 Y133.195 E52.93839
G1 X78.25 Y133.195 E56.10641
G1 X77.547 Y133.155 E56.14154
G1 X76.853 Y133.036 E56.17667
G1 X76.178 Y132.838 E56.21177
G1 X75.529 Y132.566 E56.24687
G1 X74.915 Y132.221 E56.28201
G1 X74.344 Y131.81 E56.31711
G1 X73.823 Y131.336 E56.35225
G1 X73.359 Y130.806 E56.38739
G1 X72.959 Y130.227 E56.4225
G1 X72.627 Y129.606 E56.45764
G1 X72.367 Y128.952 E56.49275
G1 X72.183 Y128.272 E56.52789
G1 X72.077 Y127.576 E56.56302
G1 X72.05 Y126.995 E56.59203
G1 X72.05 Y123.995 E56.7417
G1 X72.09 Y123.292 E56.77683
G1 X72.209 Y122.598 E56.81196
G1 X72.407 Y121.923 E56.84706
G1 X72.679 Y121.274 E56.88217
G1 X73.024 Y120.66 E56.9173
G1 X73.435 Y120.089 E56.9524
G1 X73.909 Y119.568 E56.98754
G1 X74.06 Y119.436 E56.99755
G1 X74.06 Y94.005 E58.26631
G1 X74.1 Y93.302 E58.30144
G1 X74.219 Y92.608 E58.33657
G1 X74.417 Y91.933 E58.37166
G1 X74.689 Y91.284 E58.40677
G1 X75.034 Y90.67 E58.4419
G1 X75.445 Y90.099 E58.477
G1 X75.876 Y89.621 E58.50911
G1 X76.876 Y88.621 E58.57967
G1 X77.401 Y88.152 E58.61479
G0 F3600 X77.668 Y88.451
G1 F1800 X78.226 Y88.062 E58.64873
G1 X78.826 Y87.74 E58.6827
G1 X79.46 Y87.491 E58.71668
G1 X80.119 Y87.318 E58.75067
G1 X80.793 Y87.224 E58.78462
G1 X81.26 Y87.205 E58.80794
G1 X93.5 Y87.205 E59.4186
G1 X94.18 Y87.245 E59.45258
G1 X94.85 Y87.364 E59.48653
G1 X95.502 Y87.561 E59.52051
G1 X96.126 Y87.833 E59.55447
G1 X96.249 Y87.905 E59.56158
G1 X96.762 Y87.654 E59.59008
G1 X97.404 Y87.429 E59.62402
G1 X98.069 Y87.28 E59.65802
G1 X99 Y87.205 E59.70461
G1 X138.74 Y87.205 E61.68725
G1 X139.42 Y87.245 E61.72124
G1 X140.09 Y87.364 E61.75519
G1 X140.742 Y87.561 E61.78917
G1 X141.366 Y87.833 E61.82313
G1 X141.954 Y88.177 E61.85711
G1 X142.498 Y88.587 E61.8911
G1 X142.841 Y88.904 E61.9144
G1 X143.841 Y89.904 E61.98496
G1 X144.294 Y90.413 E62.01895
G1 X144.683 Y90.971 E62.05289
G1 X145.005 Y91.571 E62.08686
G1 X145.254 Y92.205 E62.12084
G1 X145.427 Y92.864 E62.15483
G1 X145.521 Y93.538 E62.18878
G1 X145.54 Y94.005 E62.2121
G1 X145.54 Y119.608 E63.48944
G1 X145.999 Y120.048 E63.52116
G1 X146.433 Y120.573 E63.55515
G1 X146.802 Y121.145 E63.58911
G1 X147.101 Y121.757 E63.62309
G1 X147.326 Y122.399 E63.65703
G1 X147.475 Y123.064 E63.69103
G1 X147.55 Y123.995 E63.73762
G1 X147.55 Y126.995 E63.8873
G1 X147.51 Y127.675 E63.92128
G1 X147.391 Y128.345 E63.95523
G1 X147.194 Y128.997 E63.98921
G1 X146.922 Y129.621 E64.02317
G1 X146.578 Y130.209 E64.05716
G1 X146.168 Y130.753 E64.09114
G1 X145.697 Y131.244 E64.12509
G1 X145.172 Y131.678 E64.15907
G1 X144.6 Y132.047 E64.19303
G1 X143.988 Y132.346 E64.22701
G1 X143.346 Y132.571 E64.26095
G1 X142.681 Y132.72 E64.29495
G1 X141.75 Y132.795 E64.34155
G1 X78.25 Y132.795 E67.50958
G1 X77.57 Y132.755 E67.54356
G1 X76.9 Y132.636 E67.57751
G1 X76.248 Y132.439 E67.61149
