;FLAVOR:Marlin
;TIME:3939
;Filament used: 2.32369m
;Layer height: 0.3
;Generated with Cura_SteamEngine 3.6.0
M140 S70
M105
M190 S70
M104 S200
M105
M109 S200
M82 ;absolute extrusion mode
G28 ; home all axes
G29
G1 X0 Y20 Z1 F3000 ; get ready to prime
G92 E0 ; reset extrusion distance
G1 X200 E20 F600 ; prime nozzle
G92 E0
G1 E-2.5000 F1800
G1 Z0.180 F1002
G92 E0
G1 F1500 E-6.5
;LAYER_COUNT:98
;LAYER:0
M107
G0 F3600 X81.366 Y86.659 Z0.3
;TYPE:SKIRT
G1 F1500 E0
G1 F1800 X81.788 Y86.329 E0.01008
G1 X82.255 Y86.065 E0.02017
G1 X82.756 Y85.873 E0.03026
G1 X83.28 Y85.757 E0.04036
G1 X83.775 Y85.721 E0.04969
G1 X88.979 Y85.7 E0.14758
G1 X89.249 Y85.709 E0.15266
G1 X90.418 Y85.792 E0.17471
G1 X90.711 Y85.825 E0.18026
G1 X95.208 Y86.518 E0.26585
G1 X100.625 Y87.058 E0.36825
G1 X106.082 Y87.292 E0.47099
G1 X111.542 Y87.217 E0.57371
G1 X116.997 Y86.833 E0.67657
G1 X119.652 Y86.532 E0.72683
G1 X124.68 Y85.764 E0.82251
G1 X125.216 Y85.723 E0.83262
G1 X131.19 Y85.71 E0.945
G1 X131.725 Y85.749 E0.95509
G1 X132.248 Y85.867 E0.96517
G1 X132.829 Y86.1 E0.97695
G1 X138.422 Y88.941 E1.09495
G1 X143.252 Y91.092 E1.19441
G1 X143.725 Y91.346 E1.20451
G1 X144.154 Y91.668 E1.2146
G1 X144.604 Y92.138 E1.22684
G1 X144.745 Y92.315 E1.23109
G1 X145.047 Y92.758 E1.24118
G1 X145.28 Y93.241 E1.25126
G1 X145.438 Y93.754 E1.26136
G1 X145.519 Y94.284 E1.27145
G1 X145.529 Y94.557 E1.27659
G1 X145.54 Y130.46 E1.95194
G1 X145.5 Y130.995 E1.96203
G1 X145.381 Y131.518 E1.97212
G1 X145.186 Y132.017 E1.9822
G1 X144.919 Y132.482 E1.99229
G1 X144.497 Y132.995 E2.00478
G1 X144.271 Y133.223 E2.01082
G1 X143.866 Y133.575 E2.02091
G1 X143.413 Y133.863 E2.03101
G1 X142.923 Y134.08 E2.04109
G1 X142.406 Y134.222 E2.05118
G1 X141.714 Y134.289 E2.06425
G1 X117.459 Y134.29 E2.52051
G1 X117.089 Y134.271 E2.52747
G1 X110.69 Y133.61 E2.64848
G1 X105.249 Y133.378 E2.75092
G1 X99.789 Y133.455 E2.85364
G1 X94.33 Y133.841 E2.95658
G1 X90.709 Y134.266 E3.02516
G1 X90.289 Y134.291 E3.03308
G1 X78.29 Y134.29 E3.25879
G1 X77.755 Y134.25 E3.26888
G1 X77.232 Y134.131 E3.27897
G1 X76.733 Y133.936 E3.28905
G1 X76.268 Y133.668 E3.29914
G1 X75.848 Y133.335 E3.30922
G1 X75.77 Y133.263 E3.31122
G1 X75.634 Y133.13 E3.3148
G1 X75.482 Y132.974 E3.3189
G1 X75.137 Y132.563 E3.32899
G1 X74.857 Y132.106 E3.33907
G1 X74.649 Y131.612 E3.34915
G1 X74.516 Y131.092 E3.35925
G1 X74.46 Y130.462 E3.37115
G1 X74.46 Y94.539 E4.04688
G1 X74.5 Y94.004 E4.05697
G1 X74.619 Y93.481 E4.06706
G1 X74.814 Y92.982 E4.07714
G1 X75.082 Y92.517 E4.08723
G1 X75.415 Y92.097 E4.09732
G1 X75.636 Y91.877 E4.10318
G1 X81.366 Y86.659 E4.24896
G0 F3600 X81.635 Y86.955
G1 F1800 X82.035 Y86.645 E4.25848
G1 X82.478 Y86.402 E4.26798
G1 X82.954 Y86.232 E4.27749
G1 X83.451 Y86.139 E4.287
G1 X83.777 Y86.121 E4.29314
G1 X88.981 Y86.1 E4.39104
G1 X89.221 Y86.108 E4.39555
G1 X90.39 Y86.191 E4.4176
G1 X90.65 Y86.22 E4.42252
G1 X95.163 Y86.916 E4.50841
G1 X100.603 Y87.458 E4.61125
G1 X106.07 Y87.692 E4.71418
G1 X111.558 Y87.617 E4.81742
G1 X117.023 Y87.233 E4.92048
G1 X119.734 Y86.925 E4.9718
G1 X124.741 Y86.16 E5.06708
G1 X125.217 Y86.123 E5.07606
G1 X131.191 Y86.11 E5.18843
G1 X131.695 Y86.149 E5.19794
G1 X132.187 Y86.267 E5.20746
G1 X132.647 Y86.457 E5.21682
G1 X138.242 Y89.299 E5.33487
G1 X143.09 Y91.458 E5.43469
G1 X143.534 Y91.699 E5.4442
G1 X143.934 Y92.008 E5.4537
G1 X144.291 Y92.387 E5.4635
G1 X144.432 Y92.564 E5.46775
G1 X144.715 Y92.983 E5.47727
G1 X144.928 Y93.442 E5.48678
G1 X145.066 Y93.928 E5.49629
G1 X145.129 Y94.557 E5.50818
G1 X145.14 Y130.46 E6.18353
G1 X145.1 Y130.964 E6.19304
G1 X144.982 Y131.455 E6.20254
G1 X144.787 Y131.922 E6.21206
G1 X144.521 Y132.352 E6.22157
G1 X144.213 Y132.714 E6.23051
G1 X143.987 Y132.942 E6.23655
G1 X143.604 Y133.272 E6.24606
G1 X143.173 Y133.537 E6.25558
G1 X142.706 Y133.731 E6.26509
G1 X142.215 Y133.85 E6.2746
G1 X141.714 Y133.889 E6.28405
G1 X117.459 Y133.89 E6.7403
G1 X117.13 Y133.873 E6.7465
G1 X110.715 Y133.211 E6.86781
G1 X105.261 Y132.978 E6.97049
G1 X99.773 Y133.055 E7.07374
G1 X94.297 Y133.442 E7.177
G1 X90.662 Y133.869 E7.24585
G1 X90.289 Y133.891 E7.25287
G1 X78.29 Y133.89 E7.47858
G1 X77.786 Y133.85 E7.48809
G1 X77.294 Y133.731 E7.49761
G1 X76.828 Y133.536 E7.50712
G1 X76.398 Y133.271 E7.51662
G1 X76.12 Y133.041 E7.5234
G1 X76.042 Y132.969 E7.5254
G1 X75.92 Y132.851 E7.52859
G1 X75.768 Y132.695 E7.53269
G1 X75.445 Y132.306 E7.5422
G1 X75.187 Y131.871 E7.55172
G1 X75.001 Y131.401 E7.56122
G1 X74.891 Y130.908 E7.57072
G1 X74.86 Y130.462 E7.57913
G1 X74.86 Y94.539 E8.25487
G1 X74.9 Y94.035 E8.26438
G1 X75.019 Y93.544 E8.27388
G1 X75.213 Y93.077 E8.28339
G1 X75.479 Y92.647 E8.2929
G1 X75.905 Y92.173 E8.30489
G1 X81.635 Y86.955 E8.45067
G0 F3600 X83.881 Y89.5
;TYPE:SUPPORT
G1 F1800 X89.619 Y89.5 E8.55861
G1 X89.736 Y89.613 E8.56167
G1 X89.746 Y90.479 E8.57796
G1 X89.739 Y91.177 E8.59109
G1 X89.335 Y91.569 E8.60168
G1 X89.229 Y92.08 E8.61149
G1 X90.084 Y94.173 E8.65402
G1 X90.35 Y94.42 E8.66085
G1 X90.35 Y97.63 E8.72123
G1 X90.201 Y97.816 E8.72571
G1 X89.744 Y97.816 E8.73431
G1 X89.1 Y98.46 E8.75144
G1 X89.1 Y99.646 E8.77375
G1 X89.744 Y100.29 E8.79088
G1 X90.1 Y100.29 E8.79758
G1 X90.1 Y110.276 E8.98542
G1 X90.501 Y110.675 E8.99606
G1 X99.347 Y110.643 E9.16246
G1 X99.347 Y114.355 E9.23229
G1 X90.501 Y114.324 E9.39869
G1 X90.1 Y114.723 E9.40933
G1 X90.1 Y124.71 E9.59719
G1 X89.744 Y124.71 E9.60388
G1 X89.1 Y125.354 E9.62102
G1 X89.1 Y126.54 E9.64333
G1 X89.744 Y127.184 E9.66046
G1 X90.1 Y127.184 E9.66715
G1 X90.1 Y130.5 E9.72953
G1 X78.366 Y130.5 E9.95025
G1 X78.25 Y130.384 E9.95334
G1 X78.25 Y94.616 E10.62616
G1 X78.366 Y94.5 E10.62924
G1 X82.942 Y94.5 E10.71532
G1 X83.374 Y94.209 E10.72512
G1 X84.253 Y92.045 E10.76905
G1 X84.146 Y91.535 E10.77885
G1 X83.762 Y91.162 E10.78892
G1 X83.753 Y90.478 E10.80179
G1 X83.764 Y89.615 E10.81803
G1 X83.881 Y89.5 E10.82111
G0 F3600 X83.915 Y90.678
G1 F1800 X89.584 Y90.678 E10.92775
G0 F3600 X88.011 Y89.66
G1 F1800 X88.011 Y130.34 E11.69296
G0 F3600 X85.344 Y130.34
G1 F1800 X85.344 Y89.66 E12.45818
G0 F3600 X83.898 Y93.345
G1 F1800 X89.574 Y93.345 E12.56495
G0 F3600 X90.19 Y96.012
G1 F1800 X78.41 Y96.012 E12.78653
G0 F3600 X80.01 Y94.66
G1 F1800 X80.01 Y130.34 E13.45769
G0 F3600 X82.677 Y130.34
G1 F1800 X82.677 Y94.66 E14.12885
G0 F3600 X78.41 Y98.679
G1 F1800 X88.94 Y98.679 E14.32693
G0 F3600 X89.94 Y101.346
G1 F1800 X78.41 Y101.346 E14.54382
G0 F3600 X78.41 Y104.013
G1 F1800 X89.94 Y104.013 E14.7607
G0 F3600 X89.94 Y106.68
G1 F1800 X78.41 Y106.68 E14.97759
G0 F3600 X78.41 Y109.347
G1 F1800 X89.94 Y109.347 E15.19447
G0 F3600 X90.678 Y110.834
G1 F1800 X90.678 Y114.164 E15.25711
G0 F3600 X89.94 Y114.681
G1 F1800 X78.41 Y114.681 E15.474
G0 F3600 X78.41 Y112.014
G1 F1800 X99.187 Y112.014 E15.86482
G0 F3600 X98.679 Y110.805
G1 F1800 X98.679 Y114.192 E15.92854
G0 F3600 X96.012 Y114.183
G1 F1800 X96.012 Y110.815 E15.99189
G0 F3600 X93.345 Y110.824
G1 F1800 X93.345 Y114.173 E16.05489
G0 F3600 X89.94 Y117.348
G1 F1800 X78.41 Y117.348 E16.27177
G0 F3600 X78.409 Y120.015
G1 F1800 X89.939 Y120.015 E16.48866
G0 F3600 X89.939 Y122.682
G1 F1800 X78.409 Y122.682 E16.70554
G0 F3600 X78.409 Y125.349
G1 F1800 X88.939 Y125.349 E16.90362
G0 F3600 X89.939 Y128.016
G1 F1800 X78.409 Y128.016 E17.1205
G1 F1500 E10.6205
G0 F3600 X89.339 Y98.559
G0 X89.843 Y98.055
G0 X99.9 Y97.816
G1 F1500 E17.1205
G1 F1800 X99.9 Y96.317 E17.1487
G1 X107.251 Y96.317 E17.28698
G1 X107.65 Y95.918 E17.29759
G1 X107.65 Y94.5 E17.32427
G1 X117.85 Y94.5 E17.51613
G1 X117.85 Y95.918 E17.54281
G1 X118.249 Y96.317 E17.55342
G1 X120.1 Y96.317 E17.58824
G1 X120.1 Y97.816 E17.61644
G1 X119.917 Y97.816 E17.61988
G1 X119.601 Y97.5 E17.62828
G1 X115.399 Y97.5 E17.70733
G1 X115.083 Y97.816 E17.71573
G1 X114.817 Y97.816 E17.72074
G1 X114.501 Y97.5 E17.72914
G1 X105.499 Y97.5 E17.89848
G1 X105.183 Y97.816 E17.90688
G1 X105 Y97.816 E17.91032
G1 X105 Y97.24 E17.92116
G1 X104.601 Y96.841 E17.93177
G1 X100.4 Y96.834 E18.0108
G1 X100 Y97.234 E18.02144
G1 X100 Y97.816 E18.03239
G1 X99.9 Y97.816 E18.03427
G0 F3600 X101.346 Y96.675
G1 F1800 X101.346 Y96.477 E18.03799
G0 F3600 X104.013 Y96.477
G1 F1800 X104.013 Y96.679 E18.04179
G0 F3600 X106.68 Y96.477
G1 F1800 X106.68 Y97.34 E18.05802
G0 F3600 X107.783 Y96.012
G1 F1800 X117.717 Y96.012 E18.24489
G0 F3600 X117.348 Y97.34
G1 F1800 X117.348 Y94.66 E18.2953
G0 F3600 X114.681 Y94.66
G1 F1800 X114.681 Y97.453 E18.34784
G0 F3600 X112.014 Y97.34
G1 F1800 X112.014 Y94.66 E18.39825
G0 F3600 X109.347 Y94.66
G1 F1800 X109.347 Y97.34 E18.44866
G1 F1500 E11.94866
G0 F3600 X89.843 Y98.055
G0 X89.339 Y98.559
G0 X89.339 Y99.547
G0 X89.792 Y100
G0 X110.041 Y110.642
G1 F1500 E18.44866
G1 F1800 X114.222 Y110.625 E18.52731
G1 X114.222 Y114.35 E18.59738
G1 X110.002 Y114.34 E18.67676
G1 X105.751 Y114.352 E18.75672
G1 X105.751 Y110.623 E18.82687
G1 X110.041 Y110.642 E18.90757
G0 F3600 X109.347 Y110.799
G1 F1800 X109.347 Y114.182 E18.9712
G0 F3600 X112.014 Y114.184
G1 F1800 X112.014 Y110.794 E19.03497
G0 F3600 X114.062 Y112.014
G1 F1800 X105.911 Y112.014 E19.1883
G0 F3600 X106.68 Y110.788
G1 F1800 X106.68 Y114.189 E19.25227
G1 F1500 E12.75227
G0 F3600 X89.843 Y124.949
G0 X89.339 Y125.453
G0 X89.339 Y126.441
G0 X89.843 Y126.945
G0 X105.1 Y127.184
G1 F1500 E19.25227
G1 F1800 X105.1 Y128.683 E19.28047
G1 X99.9 Y128.683 E19.37828
G1 X99.9 Y127.184 E19.40648
G1 X100 Y127.184 E19.40836
G1 X100 Y127.763 E19.41925
G1 X100.399 Y128.162 E19.42987
G1 X104.601 Y128.162 E19.50891
G1 X105 Y127.763 E19.51952
G1 X105 Y127.184 E19.53041
G1 X105.1 Y127.184 E19.53229
G0 F3600 X104.013 Y128.322
G1 F1800 X104.013 Y128.523 E19.53608
G0 F3600 X101.346 Y128.523
G1 F1800 X101.346 Y128.322 E19.53986
G0 F3600 X114.9 Y128.683
G1 F1800 X114.9 Y127.184 E19.56805
G1 X115.083 Y127.184 E19.5715
G1 X115.399 Y127.5 E19.5799
G1 X119.601 Y127.5 E19.65894
G1 X119.917 Y127.184 E19.66735
G1 X120.183 Y127.184 E19.67235
G1 X120.499 Y127.5 E19.68076
G1 X129.501 Y127.5 E19.85009
G1 X129.817 Y127.184 E19.8585
G1 X130.256 Y127.184 E19.86676
G1 X130.9 Y126.54 E19.88389
G1 X130.9 Y125.354 E19.9062
G1 X130.256 Y124.71 E19.92333
G1 X129.9 Y124.71 E19.93003
G1 X129.9 Y114.722 E20.11791
G1 X129.499 Y114.323 E20.12855
G1 X120.626 Y114.354 E20.29545
G1 X120.626 Y110.643 E20.36526
G1 X129.499 Y110.674 E20.53217
G1 X129.9 Y110.275 E20.54281
G1 X129.9 Y100.29 E20.73063
G1 X130.256 Y100.29 E20.73733
G1 X130.9 Y99.646 E20.75446
G1 X130.9 Y98.46 E20.77677
G1 X130.256 Y97.816 E20.7939
G1 X129.817 Y97.816 E20.80216
G1 X129.501 Y97.5 E20.81057
G1 X124.65 Y97.5 E20.90182
G1 X124.65 Y94.424 E20.95968
G1 X124.908 Y94.182 E20.96633
G1 X125.771 Y92.083 E21.00902
G1 X125.664 Y91.574 E21.0188
G1 X125.262 Y91.184 E21.02934
G1 X125.253 Y90.478 E21.04262
G1 X125.264 Y89.615 E21.05886
G1 X125.381 Y89.5 E21.06194
G1 X131.119 Y89.5 E21.16988
G1 X131.236 Y89.614 E21.17295
G1 X131.246 Y90.519 E21.18997
G1 X131.239 Y91.165 E21.20213
G1 X129.856 Y92.527 E21.23864
G1 X129.95 Y93.123 E21.24999
G1 X132.705 Y94.5 E21.30793
G1 X141.634 Y94.5 E21.47588
G1 X141.75 Y94.616 E21.47897
G1 X141.75 Y130.384 E22.15179
G1 X141.634 Y130.5 E22.15487
G1 X117.65 Y130.5 E22.60602
G1 X117.65 Y129.082 E22.6327
G1 X117.251 Y128.683 E22.64331
G1 X114.9 Y128.683 E22.68754
G0 F3600 X115.059 Y128.016
G1 F1800 X141.59 Y128.016 E23.1866
G0 F3600 X141.351 Y130.34
G1 F1800 X141.351 Y94.66 E23.85776
G0 F3600 X141.59 Y96.012
G1 F1800 X124.81 Y96.012 E24.1734
G0 F3600 X125.349 Y97.34
G1 F1800 X125.349 Y93.528 E24.24511
G0 F3600 X125.425 Y93.345
G1 F1800 X130.04 Y93.345 E24.33192
G0 F3600 X130.683 Y93.668
G1 F1800 X130.683 Y98.016 E24.41371
G0 F3600 X131.06 Y98.679
G1 F1800 X141.59 Y98.679 E24.61178
G0 F3600 X141.59 Y101.346
G1 F1800 X130.06 Y101.346 E24.82867
G0 F3600 X130.683 Y100.09
G1 F1800 X130.683 Y124.91 E25.29554
G0 F3600 X131.059 Y125.349
G1 F1800 X141.59 Y125.349 E25.49364
G0 F3600 X141.59 Y122.682
G1 F1800 X130.059 Y122.682 E25.71054
G0 F3600 X130.059 Y120.015
G1 F1800 X141.59 Y120.015 E25.92745
G0 F3600 X141.59 Y117.348
G1 F1800 X130.06 Y117.348 E26.14433
G0 F3600 X130.06 Y114.681
G1 F1800 X141.59 Y114.681 E26.36122
G0 F3600 X141.59 Y112.014
G1 F1800 X120.786 Y112.014 E26.75255
G0 F3600 X122.682 Y110.811
G1 F1800 X122.682 Y114.187 E26.81606
G0 F3600 X125.349 Y114.178
G1 F1800 X125.349 Y110.82 E26.87922
G0 F3600 X128.016 Y110.829
G1 F1800 X128.016 Y114.169 E26.94205
G0 F3600 X130.06 Y109.347
G1 F1800 X141.59 Y109.347 E27.15894
G0 F3600 X141.59 Y106.68
G1 F1800 X130.06 Y106.68 E27.37582
G0 F3600 X130.06 Y104.013
G1 F1800 X141.59 Y104.013 E27.59271
G0 F3600 X138.684 Y94.66
G1 F1800 X138.684 Y130.34 E28.26387
G0 F3600 X136.017 Y130.34
G1 F1800 X136.017 Y94.66 E28.93503
G0 F3600 X133.35 Y94.66
G1 F1800 X133.35 Y130.34 E29.60619
G0 F3600 X130.683 Y130.34
G1 F1800 X130.683 Y126.984 E29.66932
G0 F3600 X128.016 Y127.66
G1 F1800 X128.016 Y130.34 E29.71973
G0 F3600 X125.349 Y130.34
G1 F1800 X125.349 Y127.66 E29.77014
G0 F3600 X122.682 Y127.66
G1 F1800 X122.682 Y130.34 E29.82056
G0 F3600 X120.015 Y130.34
G1 F1800 X120.015 Y127.344 E29.87691
G0 F3600 X117.348 Y127.66
G1 F1800 X117.348 Y128.553 E29.89371
G1 F1500 E23.39371
G0 F3600 X130.157 Y126.945
G0 X130.661 Y126.441
G0 X130.661 Y98.559
G0 X130.208 Y98.106
G0 X128.016 Y97.34
G1 F1500 E29.89371
G1 F1800 X128.016 Y89.66 E30.03817
G0 F3600 X130.683 Y89.66
G1 F1800 X130.683 Y91.489 E30.07258
G0 F3600 X131.084 Y90.678
G1 F1800 X125.415 Y90.678 E30.17922
G1 F1500 E23.67922
;MESH:Box.stl
G0 F3600 X125.415 Y98.051
G0 X125.415 Y98.936
G0 X129.73 Y99.09
G0 X129.8 Y99.19
;TYPE:WALL-OUTER
G1 F1500 E30.17922
G1 F1800 X90.2 Y99.19 E30.92411
G1 X90.2 Y98.916 E30.92927
G1 X129.8 Y98.916 E31.43952
G1 X129.8 Y99.19 E31.44468
G0 F3600 X129.6 Y99.19
G1 F1500 E24.94468
G0 F3600 X129.6 Y99.09
G0 X129.73 Y99.17
G0 X129.73 Y100.055
G0 X129.73 Y124.945
G0 X129.73 Y125.83
G0 X129.73 Y125.984
G0 X129.8 Y126.084
G1 F1500 E31.44468
G1 F1800 X90.2 Y126.084 E32.18958
G1 X90.2 Y125.81 E32.19473
G1 X129.8 Y125.81 E32.70498
G1 X129.8 Y126.084 E32.71014
G0 F3600 X129.6 Y126.084
G1 F1500 E26.21014
;MESH:NONMESH
G0 F3600 X129.6 Y125.984
G0 X90.214 Y125.824
G0 X90.214 Y124.945
G0 X80.01 Y94.5
;TIME_ELAPSED:78.390003
;LAYER:1
M140 S70
M106 S255
G0 F5400 X80.01 Y94.5 Z0.6
;TYPE:SUPPORT
G1 F1500 E32.71014
G1 F2700 X78.366 Y94.5 E32.74106
G1 X78.25 Y94.616 E32.74415
G1 X78.25 Y130.384 E33.41697
G1 X78.366 Y130.5 E33.42005
G1 X80.01 Y130.5 E33.45098
G1 X80.01 Y94.5 E34.12816
G1 X82.677 Y94.5 E34.17832
G1 X82.677 Y130.5 E34.8555
G1 X85.344 Y130.5 E34.90567
G1 X85.344 Y89.5 E35.6769
G1 X88.011 Y89.5 E35.72707
G1 X88.011 Y130.5 E36.4983
G1 X90.1 Y130.5 E36.5376
G1 X90.1 Y127.288 E36.59802
G1 X89.744 Y127.288 E36.60472
G1 X89.1 Y126.644 E36.62185
G1 X89.1 Y124.998 E36.65281
G1 X89.744 Y124.354 E36.66994
G1 X90.1 Y124.354 E36.67664
G1 X90.1 Y114.723 E36.8578
G1 X90.501 Y114.324 E36.86844
G1 X90.678 Y114.324 E36.87177
G1 X90.678 Y110.674 E36.94043
G1 X93.345 Y110.664 E36.9906
G1 X93.345 Y114.333 E37.05962
G1 X96.012 Y114.343 E37.10978
G1 X96.012 Y110.655 E37.17916
G1 X98.679 Y110.645 E37.22933
G1 X98.679 Y114.352 E37.29906
G1 X99.347 Y114.355 E37.31162
G1 X99.347 Y110.643 E37.38145
G1 X98.679 Y110.645 E37.39401
G1 F1500 E30.89401
G0 F5400 X89.339 Y99.902
G0 X89.339 Y98.455
G0 X89.843 Y97.951
G0 X101.346 Y96.317
G1 F1500 E37.39401
G1 F2700 X99.9 Y96.317 E37.42121
G1 X99.9 Y97.712 E37.44745
G1 X100 Y97.712 E37.44933
G1 X100 Y97.234 E37.45833
G1 X100.4 Y96.834 E37.46897
G1 X101.346 Y96.835 E37.48676
G1 X101.346 Y96.317 E37.4965
G1 X104.013 Y96.317 E37.54667
G1 X104.013 Y96.84 E37.55651
G1 X104.601 Y96.841 E37.56757
G1 X105 Y97.24 E37.57819
G1 X105 Y97.712 E37.58706
G1 X105.288 Y97.712 E37.59248
G1 X105.499 Y97.5 E37.59811
G1 X106.68 Y97.5 E37.62032
G1 X106.68 Y96.317 E37.64258
G1 X107.251 Y96.317 E37.65332
G1 X107.65 Y95.918 E37.66393
G1 X107.65 Y94.5 E37.6906
G1 X109.347 Y94.5 E37.72253
G1 X109.347 Y97.5 E37.77896
G1 X112.014 Y97.5 E37.82913
G1 X112.014 Y94.5 E37.88556
G1 X114.681 Y94.5 E37.93572
G1 X114.681 Y97.68 E37.99554
G1 X114.712 Y97.712 E37.99638
G1 X115.188 Y97.712 E38.00533
G1 X115.399 Y97.5 E38.01096
G1 X117.348 Y97.5 E38.04762
G1 X117.348 Y94.5 E38.10405
